X: 131207
T: Mulcaire's
Z: B.Black
S: "Lamh ar Lamh" v1, tr 4A
D: Muintir ui Raghallaigh
L: 1/8
M: 6/8
R: jig
K: G
D|EDE G2A|BeB dBd|edB GAB|ABA AGE|
EDE G2A|BeB dBd|edB GAB|AGF G2 :|
A|d^cd def|g2e fdB|ABA ABd|egf e2f|
g2e fed|edB g2g|edB AGA|BGF G2 :|
